X:523
T: Women shange niumao duo
N: C1111
O: China,Jianxi
S: Zhongguo Minge Xuan, S. 202]
N: Glissando
R: Shange]
M: 3/4
L: 1/16
K: F
g2dcc2c2f2df | g4f4
g4f4 | g3fd3c | c8
c2cAc2d2 | c4f2d2 | c3df4
c4f4 | g3fd4 | c8
d2f2d2f2 | d2f2d2f2 | d2f2d2f2
d2f2d2f2 | d2f2d2f2 | d2f2f2d2 | g4f4
g4f4 | g3fd4 | c8
d2f2d2f2 | d2f2d2f2 | d2f2d2f2
d2f2d2f2 | d2f2d2f2d2f2 | d2d2d3c | c4
z2d2 | f2d2f2d2 | f2d2c3d | f8
f4c4 | d2f2d4 | c8

